X:61
T: Die Bluthochzeit
N: Q0046B
O: Suedosteuropa, Rumaenien, Siebenbuergen, Bistritz, Weisskirch
N: Melodie gehoert zu einem geistlichen Lied.
R: Ballade, Entfuehrung, Mord, Vergeltung; geistlich
M: 3/4
L: 1/8
K: F
FA | c3dcB | A3Fc2 | B3ABA | GGz2
FG | A3BAG | F3GA2 | G3FG2 | F4

@@@ Tune index: 797
